X:1
T:Title
%%score { 1 | 2 }
L:1/8
M:6/8
K:Ab
V:1 treble nm="Grand Piano"
V:2 bass 
V:1
 z3 z2[Q:1/4=90] [CE] | [Ec][CA][DF] [CE][DF][DA] | [CE]3 [CA]2 [Ec] | ecB ABc |[M:5/8] B-B- B3 | %5
[M:1/8] E |[M:3/4] [Ec][CA] [DF][CE] [_C=D][=CE] | [DF]3 [FA]2 F | EA c[DB] [DF][DG] | %9
[M:5/8] [CA]-[CA]- [CA]3 |[M:1/8] [Ae] |[M:3/4] [Ge][Gd] [EGc][DGB] [EGc][DGB] | %12
 [CEA]2 [A,DF] [CE]2 [CA] | [CA][CA] [CA][=DF] [DB][Dc] |[M:5/8] [DB]-[DB]- [DB]3 |[M:1/8] [DE] | %16
[M:3/4] [CE][_C=D] [=CE][CA] [DB][Ec] | [Fe]3 [Fd]2 F | EA c[=DB] [DF][_DG] | %19
[M:5/8] [CA]-[CA]- [CA]3 |] %20
V:2
 z3 z2 [A,,A,] | [A,,A,][A,,A,][A,,A,] [A,,A,][A,,A,][A,,F,] | [A,,A,]3 [A,,E,]2 [A,,A,] | %3
 [A,CE][A,E][A,DE] [A,CE][A,CE][A,E] |[M:5/8] [E,G,E]-[E,G,E]- [E,G,E]3 |[M:1/8] [E,G,D] | %6
[M:3/4] [A,,A,][A,,A,] [A,,A,][A,,A,] [A,,A,][A,,A,] | [D,A,]3 [D,D]2 [D,A,D] | %8
 [E,A,C][E,A,C] [E,A,E][B,,F,] [B,,B,][E,B,] |[M:5/8] [A,,A,]-[A,,A,]- [A,,A,]3 |[M:1/8] [A,C] | %11
[M:3/4] [E,B,][E,B,] E,E, E,E, | A,2 D, [A,,A,]2 [A,,A,] | %13
 [A,,A,][A,,A,] [A,,A,][B,,A,] [B,,F,][B,,A,] |[M:5/8] [E,G,]-[E,G,]- [E,G,]3 |[M:1/8] [E,G,] | %16
[M:3/4] [A,,A,][A,,A,] [A,,A,][A,,A,] [A,,A,][A,,A,] | [D,A,]3 [D,A,]2 [D,A,D] | %18
 [E,A,C][E,A,C] [E,A,E][B,,F,] [B,,B,][E,B,] |[M:5/8] [A,,A,]-[A,,A,]- [A,,A,]3 |] %20

